X: 1
T:Big Don MacDonald
M:6/8
L:1/8
Q:80
C:A.R. MacDonald
S:March
K:HP
{g}A|
{Gdc}d3/2e/2f{gfg}f3/2e/2d|
{g}f/2a3/2f{gfg}f3/2e/2d|
{ag}a3/2f/2d{ag}a2d|  !
{g}c2{GdG}e{g}e3/2c/2{d}A{Gdc}d3/2e/2f{gfg}f3/2e/2d|
{g}f/2a3/2f{gfg}f3/2e/2d|
a2{AGAG}A{g}c2{GdG}e|  !
{Gdc}d2{gdc}d:|
{gf}g|
{ag}a3/2f/2d{g}A3/2d/2f|  !
a2{GdG}a{fg}f3/2e/2d|
{gf}g3/2f/2g{ef}e3/2c/2e|
{g}c2{GdG}e{g}e3/2c/2{d}A{ag}a3/2f/2d{g}A3/2d/2f|  !
a2{GdG}a{fg}f3/2e/2d|
a2{AGAG}A{g}c2{GdG}e|
{Gdc}d2{gdc}d:|  !
{g}A|
{Gdc}d3/2e/2f{g}A3/2d/2f|
a2{GdG}a{gfg}f3|
{gf}g3/2f/2g{a}c2{GdG}e|  !
{Gdc}d3/2e/2f{g}A2{g}A{Gdc}d3/2e/2f{g}A3/2d/2f|
a2{GdG}a{gfg}f3|
a2{AGAG}A{g}c2{GdG}e|  !
{Gdc}d2{gdc}d:|
{gf}g|
a2{GdG}a{g}a3/2f/2d|  !
{g}f3/2g/2a{g}a3/2f/2d|
a2{GdG}a{g}a3/2f/2d|
{g}c2{GdG}e{g}e3/2c/2{d}Aa2{GdG}a{g}a3/2f/2d|  !
{g}f3/2g/2a{g}a3/2f/2d|
a2{AGAG}A{g}c2{GdG}e|
{Gdc}d2{gdc}d:|  !
